X: 5574
T: Bush In Bloom, The
R: reel
M: 4/4
K: Gmajor
d2BG AGEF|G2Bd efge|d2BG AGEd|eaag fde^c|
d2BG AGEF|G2Bd efge|d2BG AGEF|GBAF G2ef||
g2dg Bgdg|g2bg agef|g2dg Bgdg|egfa g2ga|
bg~g2 agef|gage dega|bgaf gfed|edef gage||

